X:93
T:The winter it is past and the summer's come at last
T:pretty
Z:Jack Campin - http://www.campin.me.uk
S:Blaikie MS (NLS MS.1578) p28, Blaikie #87
M:C
L:1/8
V:1 midi program 1 74
V:2 midi program 1 46 bass middle = d transpose -24
Q:1/4=90
K:D Mixolydian
[V:1] E2|D2 EF G2 c>B|AG`AE D2 G2|A2 Bc d2 ce|A4 z2
[V:2] z2|G2 c2 B2 G2 |B2 c2 B2 G2|d2 g2 g2 c2|d4 z2
%
[V:1] G2|A2 Bc d2 cB |AG`AE D2 EF|G2 cB AG`AE|D4 z2|]
[V:2] z2|d2 g2 b2 g2| B2 c2 B2 A2|G2 G2 g2 g2|g4 z2|]
W:Transcription (c) Jack Campin 2009, no mirroring or republication without permission

